source/images/html-academy.svg

<svg width="168" height="37" viewBox="0 0 168 37" fill="none" xmlns="http://www.w3.org/2000/svg">
<path d="M15.752 13.036V24.5H14.2V19.284H8.016V24.5H6.464V13.036H8.016V18.148H14.2V13.036H15.752ZM26.4348 14.34H22.7228V24.5H21.1788V14.34H17.4588V13.036H26.4348V14.34ZM40.0639 13.036V24.5H38.7039V16.076C38.7039 15.964 38.7065 15.844 38.7119 15.716C38.7225 15.588 38.7332 15.4573 38.7439 15.324L34.8079 22.492C34.6852 22.732 34.4985 22.852 34.2479 22.852H34.0239C33.7732 22.852 33.5865 22.732 33.4639 22.492L29.4479 15.292C29.4799 15.5747 29.4959 15.836 29.4959 16.076V24.5H28.1359V13.036H29.2799C29.4185 13.036 29.5252 13.0493 29.5999 13.076C29.6745 13.1027 29.7465 13.1773 29.8159 13.3L33.7759 20.356C33.8399 20.484 33.9012 20.6173 33.9599 20.756C34.0239 20.8947 34.0825 21.036 34.1359 21.18C34.1892 21.036 34.2452 20.8947 34.3039 20.756C34.3625 20.612 34.4265 20.476 34.4959 20.348L38.3839 13.3C38.4479 13.1773 38.5172 13.1027 38.5919 13.076C38.6719 13.0493 38.7812 13.036 38.9199 13.036H40.0639ZM49.4993 23.196V24.5H42.9953V13.036H44.5393V23.196H49.4993ZM60.3801 20.244L58.5801 15.58C58.5268 15.4413 58.4708 15.2813 58.4121 15.1C58.3535 14.9133 58.2975 14.716 58.2441 14.508C58.1321 14.94 58.0175 15.3 57.9001 15.588L56.1001 20.244H60.3801ZM63.6121 24.5H62.4121C62.2735 24.5 62.1615 24.4653 62.0761 24.396C61.9908 24.3267 61.9268 24.2387 61.8841 24.132L60.8121 21.364H55.6681L54.5961 24.132C54.5641 24.228 54.5028 24.3133 54.4121 24.388C54.3215 24.4627 54.2095 24.5 54.0761 24.5H52.8761L57.4601 13.036H59.0281L63.6121 24.5ZM70.2055 17.836C70.1628 17.8947 70.1202 17.94 70.0775 17.972C70.0348 18.004 69.9762 18.02 69.9015 18.02C69.8215 18.02 69.7335 17.988 69.6375 17.924C69.5415 17.8547 69.4215 17.78 69.2775 17.7C69.1388 17.62 68.9655 17.548 68.7575 17.484C68.5548 17.4147 68.3042 17.38 68.0055 17.38C67.6055 17.38 67.2535 17.452 66.9495 17.596C66.6455 17.7347 66.3895 17.9373 66.1815 18.204C65.9788 18.4707 65.8242 18.7933 65.7175 19.172C65.6162 19.5507 65.5655 19.9747 65.5655 20.444C65.5655 20.9347 65.6215 21.372 65.7335 21.756C65.8455 22.1347 66.0028 22.4547 66.2055 22.716C66.4135 22.972 66.6615 23.1693 66.9495 23.308C67.2428 23.4413 67.5708 23.508 67.9335 23.508C68.2802 23.508 68.5655 23.468 68.7895 23.388C69.0135 23.3027 69.1975 23.2093 69.3415 23.108C69.4908 23.0067 69.6135 22.916 69.7095 22.836C69.8108 22.7507 69.9095 22.708 70.0055 22.708C70.1228 22.708 70.2135 22.7533 70.2775 22.844L70.6775 23.364C70.5015 23.5827 70.3015 23.7693 70.0775 23.924C69.8535 24.0787 69.6108 24.2093 69.3495 24.316C69.0935 24.4173 68.8242 24.492 68.5415 24.54C68.2588 24.588 67.9708 24.612 67.6775 24.612C67.1708 24.612 66.6988 24.5187 66.2615 24.332C65.8295 24.1453 65.4535 23.876 65.1335 23.524C64.8135 23.1667 64.5628 22.7293 64.3815 22.212C64.2002 21.6947 64.1095 21.1053 64.1095 20.444C64.1095 19.8413 64.1922 19.284 64.3575 18.772C64.5282 18.26 64.7735 17.82 65.0935 17.452C65.4188 17.0787 65.8162 16.788 66.2855 16.58C66.7602 16.372 67.3042 16.268 67.9175 16.268C68.4882 16.268 68.9895 16.3613 69.4215 16.548C69.8588 16.7293 70.2455 16.988 70.5815 17.324L70.2055 17.836ZM76.5981 20.852C75.9421 20.8733 75.3821 20.9267 74.9181 21.012C74.4595 21.092 74.0835 21.1987 73.7901 21.332C73.5021 21.4653 73.2915 21.6227 73.1581 21.804C73.0301 21.9853 72.9661 22.188 72.9661 22.412C72.9661 22.6253 73.0008 22.8093 73.0701 22.964C73.1395 23.1187 73.2328 23.2467 73.3501 23.348C73.4728 23.444 73.6141 23.516 73.7741 23.564C73.9395 23.6067 74.1155 23.628 74.3021 23.628C74.5528 23.628 74.7821 23.604 74.9901 23.556C75.1981 23.5027 75.3928 23.428 75.5741 23.332C75.7608 23.236 75.9368 23.1213 76.1021 22.988C76.2728 22.8547 76.4381 22.7027 76.5981 22.532V20.852ZM71.9981 17.54C72.4461 17.108 72.9288 16.7853 73.4461 16.572C73.9635 16.3587 74.5368 16.252 75.1661 16.252C75.6195 16.252 76.0221 16.3267 76.3741 16.476C76.7261 16.6253 77.0221 16.8333 77.2621 17.1C77.5021 17.3667 77.6835 17.6893 77.8061 18.068C77.9288 18.4467 77.9901 18.8627 77.9901 19.316V24.5H77.3581C77.2195 24.5 77.1128 24.4787 77.0381 24.436C76.9635 24.388 76.9048 24.2973 76.8621 24.164L76.7021 23.396C76.4888 23.5933 76.2808 23.7693 76.0781 23.924C75.8755 24.0733 75.6621 24.2013 75.4381 24.308C75.2141 24.4093 74.9741 24.4867 74.7181 24.54C74.4675 24.5987 74.1875 24.628 73.8781 24.628C73.5635 24.628 73.2675 24.5853 72.9901 24.5C72.7128 24.4093 72.4701 24.276 72.2621 24.1C72.0595 23.924 71.8968 23.7027 71.7741 23.436C71.6568 23.164 71.5981 22.844 71.5981 22.476C71.5981 22.156 71.6861 21.8493 71.8621 21.556C72.0381 21.2573 72.3235 20.9933 72.7181 20.764C73.1128 20.5347 73.6275 20.348 74.2621 20.204C74.8968 20.0547 75.6755 19.9693 76.5981 19.948V19.316C76.5981 18.6867 76.4621 18.212 76.1901 17.892C75.9181 17.5667 75.5208 17.404 74.9981 17.404C74.6461 17.404 74.3501 17.4493 74.1101 17.54C73.8755 17.6253 73.6701 17.724 73.4941 17.836C73.3235 17.9427 73.1741 18.0413 73.0461 18.132C72.9235 18.2173 72.8008 18.26 72.6781 18.26C72.5821 18.26 72.4995 18.236 72.4301 18.188C72.3608 18.1347 72.3021 18.0707 72.2541 17.996L71.9981 17.54ZM85.4393 18.324C85.1726 17.9667 84.8846 17.7187 84.5753 17.58C84.2659 17.436 83.9193 17.364 83.5353 17.364C82.7833 17.364 82.2046 17.6333 81.7993 18.172C81.3939 18.7107 81.1913 19.4787 81.1913 20.476C81.1913 21.004 81.2366 21.4573 81.3273 21.836C81.4179 22.2093 81.5513 22.5187 81.7273 22.764C81.9033 23.004 82.1193 23.18 82.3753 23.292C82.6313 23.404 82.9219 23.46 83.2473 23.46C83.7166 23.46 84.1246 23.3533 84.4713 23.14C84.8233 22.9267 85.1459 22.6253 85.4393 22.236V18.324ZM86.8633 12.716V24.5H86.0153C85.8126 24.5 85.6846 24.4013 85.6313 24.204L85.5033 23.22C85.1566 23.636 84.7619 23.972 84.3193 24.228C83.8766 24.484 83.3646 24.612 82.7833 24.612C82.3193 24.612 81.8979 24.524 81.5193 24.348C81.1406 24.1667 80.8179 23.9027 80.5513 23.556C80.2846 23.2093 80.0793 22.7773 79.9353 22.26C79.7913 21.7427 79.7193 21.148 79.7193 20.476C79.7193 19.8787 79.7993 19.324 79.9593 18.812C80.1193 18.2947 80.3486 17.8467 80.6473 17.468C80.9459 17.0893 81.3113 16.7933 81.7433 16.58C82.1806 16.3613 82.6713 16.252 83.2153 16.252C83.7113 16.252 84.1353 16.3373 84.4873 16.508C84.8446 16.6733 85.1619 16.9053 85.4393 17.204V12.716H86.8633ZM94.5364 19.564C94.5364 19.2333 94.4884 18.932 94.3924 18.66C94.3017 18.3827 94.1657 18.1453 93.9844 17.948C93.8084 17.7453 93.5924 17.5907 93.3364 17.484C93.0804 17.372 92.7897 17.316 92.4644 17.316C91.7817 17.316 91.2404 17.516 90.8404 17.916C90.4457 18.3107 90.2004 18.86 90.1044 19.564H94.5364ZM95.6884 23.364C95.5124 23.5773 95.3017 23.764 95.0564 23.924C94.811 24.0787 94.547 24.2067 94.2644 24.308C93.987 24.4093 93.699 24.484 93.4004 24.532C93.1017 24.5853 92.8057 24.612 92.5124 24.612C91.9524 24.612 91.435 24.5187 90.9604 24.332C90.491 24.14 90.083 23.8627 89.7364 23.5C89.395 23.132 89.1284 22.6787 88.9364 22.14C88.7444 21.6013 88.6484 20.9827 88.6484 20.284C88.6484 19.7187 88.7337 19.1907 88.9044 18.7C89.0804 18.2093 89.331 17.7853 89.6564 17.428C89.9817 17.0653 90.379 16.7827 90.8484 16.58C91.3177 16.372 91.8457 16.268 92.4324 16.268C92.9177 16.268 93.3657 16.3507 93.7764 16.516C94.1924 16.676 94.5497 16.9107 94.8484 17.22C95.1524 17.524 95.3897 17.9027 95.5604 18.356C95.731 18.804 95.8164 19.316 95.8164 19.892C95.8164 20.116 95.7924 20.2653 95.7444 20.34C95.6964 20.4147 95.6057 20.452 95.4724 20.452H90.0564C90.0724 20.964 90.1417 21.4093 90.2644 21.788C90.3924 22.1667 90.5684 22.484 90.7924 22.74C91.0164 22.9907 91.283 23.18 91.5924 23.308C91.9017 23.4307 92.2484 23.492 92.6324 23.492C92.9897 23.492 93.2964 23.452 93.5524 23.372C93.8137 23.2867 94.0377 23.196 94.2244 23.1C94.411 23.004 94.5657 22.916 94.6884 22.836C94.8164 22.7507 94.9257 22.708 95.0164 22.708C95.1337 22.708 95.2244 22.7533 95.2884 22.844L95.6884 23.364ZM97.5655 24.5V16.396H98.4215C98.6242 16.396 98.7495 16.4947 98.7975 16.692L98.9015 17.524C99.2002 17.156 99.5362 16.8547 99.9095 16.62C100.283 16.3853 100.715 16.268 101.206 16.268C101.75 16.268 102.19 16.42 102.526 16.724C102.867 17.028 103.112 17.4387 103.262 17.956C103.379 17.6627 103.528 17.4093 103.71 17.196C103.896 16.9827 104.104 16.8067 104.334 16.668C104.563 16.5293 104.806 16.428 105.062 16.364C105.323 16.3 105.587 16.268 105.854 16.268C106.28 16.268 106.659 16.3373 106.99 16.476C107.326 16.6093 107.608 16.8067 107.838 17.068C108.072 17.3293 108.251 17.652 108.374 18.036C108.496 18.4147 108.558 18.8493 108.558 19.34V24.5H107.126V19.34C107.126 18.7053 106.987 18.2253 106.71 17.9C106.432 17.5693 106.032 17.404 105.51 17.404C105.275 17.404 105.051 17.4467 104.838 17.532C104.63 17.612 104.446 17.732 104.286 17.892C104.126 18.052 103.998 18.2547 103.902 18.5C103.811 18.74 103.766 19.02 103.766 19.34V24.5H102.334V19.34C102.334 18.6893 102.203 18.204 101.942 17.884C101.68 17.564 101.299 17.404 100.798 17.404C100.446 17.404 100.12 17.5 99.8215 17.692C99.5228 17.8787 99.2482 18.1347 98.9975 18.46V24.5H97.5655ZM117.511 16.396L112.991 26.892C112.943 26.9987 112.881 27.084 112.807 27.148C112.737 27.212 112.628 27.244 112.479 27.244H111.423L112.903 24.028L109.559 16.396H110.791C110.913 16.396 111.009 16.428 111.079 16.492C111.153 16.5507 111.204 16.6173 111.231 16.692L113.399 21.796C113.484 22.02 113.556 22.2547 113.615 22.5C113.689 22.2493 113.769 22.012 113.855 21.788L115.959 16.692C115.991 16.6067 116.044 16.5373 116.119 16.484C116.199 16.4253 116.287 16.396 116.383 16.396H117.511Z" fill="#444444"/>
<g clip-path="url(#clip0_154961_118)">
<path d="M154.643 1.51575L154.5 1.5L141 2.90733V27.5129L154.5 35.5L168 27.5129V2.90733L154.643 1.51575ZM166.234 26.5151L154.5 33.4573L142.766 26.5151V16.4293L154.451 23.3451L154.47 24.5984L146.454 19.8548L146.443 21.0801L154.489 25.8885L154.509 27.175L146.464 22.4174L146.454 23.6427L154.5 28.4511L162.624 23.6182V22.3929V18.409L166.243 16.2595L166.234 26.5151ZM166.234 14.9519L163.015 16.8319L161.533 17.7071L154.467 13.5201L154.456 14.7454L160.496 18.318L160.443 18.3495L160.313 18.4247L159.454 18.9166L154.467 15.9689L154.456 17.1942L158.392 19.5222L157.459 20.1314L157.438 20.1436L154.467 18.402L154.456 19.6273L156.403 20.7615L154.416 21.9483L142.797 15.0762L154.435 8.11831L166.234 14.9519ZM166.234 13.7266L154.44 6.81075L142.766 13.7196V4.4897L154.5 3.26442L166.234 4.4897V13.7266Z" fill="#666666"/>
</g>
<defs>
<clipPath id="clip0_154961_118">
<rect width="27" height="34" fill="white" transform="translate(141 1.5)"/>
</clipPath>
</defs>
</svg>

<svg viewBox="0 0 168 37" fill="none" xmlns="http://www.w3.org/2000/svg"><path d="M15.75 13.04v11.46h-1.55v-5.22h-6.18v5.22h-1.56v-11.46h1.56v5.1h6.18v-5.1h1.55Zm10.68 1.3h-3.7v10.16h-1.55v-10.16h-3.72v-1.3h8.97v1.3Zm13.63-1.3v11.46h-1.36v-8.42a8.56 8.56 0 0 1 .04-.76l-3.93 7.17a.6.6 0 0 1-.56.36h-.23c-.25 0-.43-.12-.56-.36l-4.01-7.2a7 7 0 0 1 .05.79v8.42h-1.36v-11.46h1.14a1 1 0 0 1 .32.04c.07.02.15.1.22.22l3.96 7.06a6.96 6.96 0 0 1 .36.82 9.94 9.94 0 0 1 .36-.83l3.88-7.05c.07-.12.14-.2.21-.22.08-.03.2-.04.33-.04h1.14Zm9.44 10.16v1.3h-6.5v-11.46h1.54v10.16h4.96Zm10.88-2.96-1.8-4.66a9.57 9.57 0 0 1-.34-1.07c-.1.43-.22.79-.34 1.08l-1.8 4.65h4.28Zm3.23 4.26h-1.2a.52.52 0 0 1-.33-.1.64.64 0 0 1-.2-.27l-1.07-2.77h-5.14l-1.07 2.77c-.04.1-.1.18-.19.26a.52.52 0 0 1-.33.11h-1.2l4.58-11.46h1.57l4.58 11.46Zm6.6-6.66a.63.63 0 0 1-.13.13.29.29 0 0 1-.18.05.49.49 0 0 1-.26-.1 3.66 3.66 0 0 0-.88-.44c-.2-.07-.46-.1-.75-.1-.4 0-.76.07-1.06.22-.3.13-.56.34-.77.6-.2.27-.36.6-.46.97-.1.38-.15.8-.15 1.27 0 .5.05.93.16 1.32.12.37.27.7.48.96.2.25.45.45.74.59.3.13.62.2.98.2.35 0 .64-.04.86-.12.22-.09.4-.18.55-.28l.37-.27c.1-.09.2-.13.3-.13.11 0 .2.04.27.13l.4.52c-.18.22-.38.4-.6.56a3.81 3.81 0 0 1-1.54.62 4.9 4.9 0 0 1-.86.07c-.5 0-.98-.1-1.42-.28a3.29 3.29 0 0 1-1.88-2.12 5.33 5.33 0 0 1-.27-1.77c0-.6.08-1.16.25-1.67a3.5 3.5 0 0 1 1.93-2.19c.47-.2 1.01-.31 1.63-.31a3.55 3.55 0 0 1 2.66 1.06l-.37.5Zm6.39 3.01c-.66.02-1.22.08-1.68.16-.46.08-.84.19-1.13.32-.29.14-.5.3-.63.47-.13.19-.2.39-.2.61 0 .22.04.4.11.55.07.16.16.29.28.39.12.1.26.17.42.21.17.05.35.07.53.07a2.65 2.65 0 0 0 1.27-.3 4.36 4.36 0 0 0 1.02-.8v-1.68Zm-4.6-3.31a4.47 4.47 0 0 1 3.17-1.29c.45 0 .85.08 1.2.23a2.48 2.48 0 0 1 1.44 1.59c.12.38.18.8.18 1.25v5.18h-.63a.65.65 0 0 1-.32-.06c-.08-.05-.14-.14-.18-.28l-.16-.76c-.21.2-.42.37-.62.52a3.45 3.45 0 0 1-1.36.62 3.69 3.69 0 0 1-1.73-.04c-.28-.1-.52-.22-.73-.4-.2-.18-.36-.4-.49-.66a2.6 2.6 0 0 1-.17-.96c0-.32.09-.63.26-.92.18-.3.46-.57.86-.8.4-.23.9-.41 1.54-.56.64-.15 1.42-.23 2.34-.25v-.63c0-.63-.14-1.1-.41-1.43-.27-.32-.67-.49-1.2-.49a2.53 2.53 0 0 0-1.5.44c-.17.1-.32.2-.44.3a.64.64 0 0 1-.37.12.42.42 0 0 1-.25-.07.76.76 0 0 1-.18-.2l-.25-.45Zm13.44.78c-.27-.35-.56-.6-.86-.74a2.51 2.51 0 0 0-1.04-.22c-.76 0-1.34.27-1.74.81-.4.54-.6 1.3-.6 2.3 0 .53.04.99.13 1.37.09.37.22.68.4.92.17.24.39.42.65.53.25.11.54.17.87.17.47 0 .87-.1 1.22-.32.35-.21.68-.51.97-.9v-3.92Zm1.42-5.6v11.78h-.84c-.2 0-.34-.1-.39-.3l-.13-.98c-.34.42-.74.75-1.18 1a3 3 0 0 1-1.54.4 2.66 2.66 0 0 1-2.23-1.06 3.75 3.75 0 0 1-.61-1.3 6.67 6.67 0 0 1 .02-3.45c.16-.52.39-.96.69-1.34a3.16 3.16 0 0 1 2.57-1.22 2.9 2.9 0 0 1 2.22.95v-4.48h1.42Zm7.68 6.84c0-.33-.05-.63-.15-.9a1.92 1.92 0 0 0-1.93-1.34c-.68 0-1.22.2-1.62.6-.4.4-.64.94-.74 1.64h4.44Zm1.15 3.8c-.18.22-.39.4-.63.56a4.03 4.03 0 0 1-1.66.61c-.3.06-.6.08-.89.08a4.2 4.2 0 0 1-1.55-.28 3.51 3.51 0 0 1-2.02-2.19 5.51 5.51 0 0 1-.04-3.44 3.68 3.68 0 0 1 1.95-2.12 3.87 3.87 0 0 1 2.93-.06 3.1 3.1 0 0 1 1.78 1.84c.17.44.26.96.26 1.53 0 .23-.03.38-.08.45-.04.07-.13.11-.27.11h-5.41c.01.51.08.96.2 1.34a2.35 2.35 0 0 0 1.33 1.52c.31.12.66.18 1.04.18a3.1 3.1 0 0 0 1.6-.39c.18-.1.34-.18.46-.26a.63.63 0 0 1 .33-.13c.11 0 .2.04.27.13l.4.52Zm1.88 1.14v-8.1h.85c.2 0 .33.1.38.3l.1.82c.3-.36.64-.67 1-.9.38-.23.81-.35 1.3-.35.55 0 .99.15 1.33.45.34.3.58.72.73 1.24a2.62 2.62 0 0 1 1.8-1.6 3.31 3.31 0 0 1 1.93.12c.34.13.62.33.85.59.23.26.41.58.53.97.13.37.19.8.19 1.3v5.16h-1.43v-5.16c0-.63-.14-1.11-.42-1.44-.28-.33-.68-.5-1.2-.5a1.8 1.8 0 0 0-1.22.5c-.16.15-.3.35-.39.6a2.4 2.4 0 0 0-.13.84v5.16h-1.44v-5.16c0-.65-.13-1.14-.39-1.46-.26-.32-.64-.48-1.14-.48-.35 0-.68.1-.98.3-.3.18-.57.43-.82.76v6.04h-1.43Zm19.94-8.1-4.52 10.5c-.05.1-.1.18-.18.25a.5.5 0 0 1-.33.1h-1.06l1.48-3.22-3.34-7.63h1.23c.12 0 .22.03.29.1.07.05.12.12.15.2l2.17 5.1c.08.22.16.45.21.7.08-.25.16-.49.25-.71l2.1-5.1a.44.44 0 0 1 .16-.2.44.44 0 0 1 .26-.1h1.13Z" fill="#444"/><g clip-path="url(#a)"><path d="m154.64 1.52-.14-.02-13.5 1.4v24.61l13.5 7.99 13.5-7.99v-24.6l-13.36-1.4Zm11.6 25-11.74 6.94-11.73-6.94v-10.1l11.68 6.93.02 1.25-8.02-4.75v1.23l8.04 4.8.02 1.3-8.05-4.76v1.22l8.04 4.81 8.12-4.83v-5.21l3.62-2.15v10.26Zm0-11.57-3.23 1.88-1.48.88-7.06-4.19-.01 1.23 6.04 3.57-.06.03-.13.07-.86.5-4.98-2.95-.01 1.22 3.93 2.33-.93.61-.02.01-2.97-1.74-.01 1.23 1.94 1.13-1.98 1.19-11.62-6.87 11.63-6.96 11.8 6.83Zm0-1.22-11.8-6.92-11.67 6.91v-9.23l11.73-1.23 11.73 1.23v9.24Z" fill="#666"/></g><defs><clipPath id="a"><path fill="#fff" transform="translate(141 1.5)" d="M0 0h27v34h-27z"/></clipPath></defs></svg>
